X: 022075
T: Brother (The)
C: Joe Liddy
Z: BB
S: "The Leitrim Fiddler" (Dublin 1981)
L: 1/8
M: 6/8
R: jig
Q: 1/4 = 170
K: Ador
g | edB dBG | ABA GED | EAA BAG | ABd efg |
edB dBG | ABA GED | GBd efg | BAG A2d |
edB dBG | ABA GED | EAA GAB | ABd efg |
age ded | cAG EFG | ABd efg | BAG A2 |: d|
eaa aba | ged cde | dcd efg | age deg | 
eaf ged | cAG EFG | ABd efg | BAG A2 ||
